assets/svg/icon_button_qrcode.svg

<svg width="24" height="24" viewBox="0 0 24 24" fill="none" xmlns="http://www.w3.org/2000/svg">
<path d="M8 5.99609H6V7.99609H8V5.99609ZM3 5.24609C3 4.64936 3.23705 4.07706 3.65901 3.6551C4.08097 3.23315 4.65326 2.99609 5.25 2.99609H8.75C9.34674 2.99609 9.91903 3.23315 10.341 3.6551C10.7629 4.07706 11 4.64936 11 5.24609V8.74609C11 9.34283 10.7629 9.91513 10.341 10.3371C9.91903 10.759 9.34674 10.9961 8.75 10.9961H5.25C4.65326 10.9961 4.08097 10.759 3.65901 10.3371C3.23705 9.91513 3 9.34283 3 8.74609V5.24609ZM5.25 4.49609C5.05109 4.49609 4.86032 4.57511 4.71967 4.71576C4.57902 4.85642 4.5 5.04718 4.5 5.24609V8.74609C4.5 9.16009 4.836 9.49609 5.25 9.49609H8.75C8.94891 9.49609 9.13968 9.41708 9.28033 9.27642C9.42098 9.13577 9.5 8.94501 9.5 8.74609V5.24609C9.5 5.04718 9.42098 4.85642 9.28033 4.71576C9.13968 4.57511 8.94891 4.49609 8.75 4.49609H5.25ZM6 15.9961H8V17.9961H6V15.9961ZM3 15.2461C3 14.6494 3.23705 14.0771 3.65901 13.6551C4.08097 13.2331 4.65326 12.9961 5.25 12.9961H8.75C9.34674 12.9961 9.91903 13.2331 10.341 13.6551C10.7629 14.0771 11 14.6494 11 15.2461V18.7461C11 19.3428 10.7629 19.9151 10.341 20.3371C9.91903 20.759 9.34674 20.9961 8.75 20.9961H5.25C4.65326 20.9961 4.08097 20.759 3.65901 20.3371C3.23705 19.9151 3 19.3428 3 18.7461V15.2461ZM5.25 14.4961C5.05109 14.4961 4.86032 14.5751 4.71967 14.7158C4.57902 14.8564 4.5 15.0472 4.5 15.2461V18.7461C4.5 19.1601 4.836 19.4961 5.25 19.4961H8.75C8.94891 19.4961 9.13968 19.4171 9.28033 19.2764C9.42098 19.1358 9.5 18.945 9.5 18.7461V15.2461C9.5 15.0472 9.42098 14.8564 9.28033 14.7158C9.13968 14.5751 8.94891 14.4961 8.75 14.4961H5.25ZM18 5.99609H16V7.99609H18V5.99609ZM15.25 2.99609C14.6533 2.99609 14.081 3.23315 13.659 3.6551C13.2371 4.07706 13 4.64936 13 5.24609V8.74609C13 9.34283 13.2371 9.91513 13.659 10.3371C14.081 10.759 14.6533 10.9961 15.25 10.9961H18.75C19.3467 10.9961 19.919 10.759 20.341 10.3371C20.7629 9.91513 21 9.34283 21 8.74609V5.24609C21 4.64936 20.7629 4.07706 20.341 3.6551C19.919 3.23315 19.3467 2.99609 18.75 2.99609H15.25ZM14.5 5.24609C14.5 5.04718 14.579 4.85642 14.7197 4.71576C14.8603 4.57511 15.0511 4.49609 15.25 4.49609H18.75C18.9489 4.49609 19.1397 4.57511 19.2803 4.71576C19.421 4.85642 19.5 5.04718 19.5 5.24609V8.74609C19.5 8.94501 19.421 9.13577 19.2803 9.27642C19.1397 9.41708 18.9489 9.49609 18.75 9.49609H15.25C15.0511 9.49609 14.8603 9.41708 14.7197 9.27642C14.579 9.13577 14.5 8.94501 14.5 8.74609V5.24609Z" fill="#0E0E0E"/>
<path d="M13.0098 12.9961H15.0098V14.9961H17.0098V12.9961H19.0098V14.9961H17.0098V16.9961H19.0098V18.9961H21.0098V20.9961H19.0098V18.9961H17.0098V20.9961H15.0098V18.9961H17.0098V16.9961H15.0098V14.9961H13.0098V12.9961Z" fill="#0E0E0E"/>
<path d="M21.0098 14.9961H19.0098V16.9961H21.0098V14.9961Z" fill="#0E0E0E"/>
<path d="M15.0098 16.9961H13.0098V18.9961H15.0098V16.9961Z" fill="#0E0E0E"/>
</svg>

<svg xmlns="http://www.w3.org/2000/svg" width="24" height="24" fill="none"><path fill="#0E0E0E" d="M8 5.996H6v2h2zm-5-.75a2.25 2.25 0 0 1 2.25-2.25h3.5A2.25 2.25 0 0 1 11 5.246v3.5a2.25 2.25 0 0 1-2.25 2.25h-3.5A2.25 2.25 0 0 1 3 8.746zm2.25-.75a.75.75 0 0 0-.75.75v3.5c0 .414.336.75.75.75h3.5a.75.75 0 0 0 .75-.75v-3.5a.75.75 0 0 0-.75-.75zm.75 11.5h2v2H6zm-3-.75a2.25 2.25 0 0 1 2.25-2.25h3.5a2.25 2.25 0 0 1 2.25 2.25v3.5a2.25 2.25 0 0 1-2.25 2.25h-3.5A2.25 2.25 0 0 1 3 18.746zm2.25-.75a.75.75 0 0 0-.75.75v3.5c0 .414.336.75.75.75h3.5a.75.75 0 0 0 .75-.75v-3.5a.75.75 0 0 0-.75-.75zM18 5.996h-2v2h2zm-2.75-3A2.25 2.25 0 0 0 13 5.246v3.5a2.25 2.25 0 0 0 2.25 2.25h3.5A2.25 2.25 0 0 0 21 8.746v-3.5a2.25 2.25 0 0 0-2.25-2.25zm-.75 2.25a.75.75 0 0 1 .75-.75h3.5a.75.75 0 0 1 .75.75v3.5a.75.75 0 0 1-.75.75h-3.5a.75.75 0 0 1-.75-.75zM13.01 12.996h2v2h2v-2h2v2h-2v2h2v2h2v2h-2v-2h-2v2h-2v-2h2v-2h-2v-2h-2z"/><path fill="#0E0E0E" d="M21.01 14.996h-2v2h2zM15.01 16.996h-2v2h2z"/></svg>
